public/sheesh/icons3.svg

<svg width="42" height="42" viewBox="0 0 42 42" fill="none" xmlns="http://www.w3.org/2000/svg">
<rect width="42" height="42" rx="8" fill="#1D202F"/>
<path fill-rule="evenodd" clip-rule="evenodd" d="M27.28 17.28V18.53C30.08 18.88 31 20.3 31 23.79V25.65C31 29.75 29.75 31 25.65 31H16.35C12.25 31 11 29.75 11 25.65V23.79C11 20.3 11.92 18.88 14.72 18.53V17.28C14.72 14.58 15.37 11 21 11C26.63 11 27.28 14.58 27.28 17.28ZM17.98 24.72C17.98 26.38 19.33 27.74 21 27.74C22.67 27.74 24.02 26.39 24.02 24.72C24.02 23.06 22.66 21.7 21 21.7C19.34 21.7 17.98 23.05 17.98 24.72ZM16.12 18.44H16.35V18.45H25.65H25.88V17.28C25.88 14.35 25.05 12.4 21 12.4C16.95 12.4 16.12 14.35 16.12 17.28V18.44ZM22.6308 24.7208C22.6308 25.621 21.9011 26.3508 21.0008 26.3508C20.1006 26.3508 19.3708 25.621 19.3708 24.7208C19.3708 23.8206 20.1006 23.0908 21.0008 23.0908C21.9011 23.0908 22.6308 23.8206 22.6308 24.7208Z" fill="#434665"/>
</svg>

<svg fill="none" height="42" viewBox="0 0 42 42" width="42" xmlns="http://www.w3.org/2000/svg"><rect fill="#1d202f" height="42" rx="8" width="42"/><path clip-rule="evenodd" d="m27.28 17.28v1.25c2.8.35 3.72 1.77 3.72 5.26v1.86c0 4.1-1.25 5.35-5.35 5.35h-9.3c-4.1 0-5.35-1.25-5.35-5.35v-1.86c0-3.49.92-4.91 3.72-5.26v-1.25c0-2.7.65-6.28 6.28-6.28s6.28 3.58 6.28 6.28zm-9.3 7.44c0 1.66 1.35 3.02 3.02 3.02s3.02-1.35 3.02-3.02c0-1.66-1.36-3.02-3.02-3.02s-3.02 1.35-3.02 3.02zm-1.86-6.28h.23v.01h9.3.23v-1.17c0-2.93-.83-4.88-4.88-4.88s-4.88 1.95-4.88 4.88zm6.5108 6.2808c0 .9002-.7297 1.63-1.63 1.63-.9002 0-1.63-.7298-1.63-1.63s.7298-1.63 1.63-1.63c.9003 0 1.63.7298 1.63 1.63z" fill="#434665" fill-rule="evenodd"/></svg>
